X:3145
T:the Lilting Banshee
M:6/8
O:Ireland
R:Jig
Z:Richard Robinson 
%%TUNEURL: http://www.leeds.ac.uk/music/Info/RRTuneBk/gettune/00000aaf.html
%%ID:00000aaf
K:A mixolydian
EAA EAA|BAB G2A|Bee edB|def gfg|\
eAA eAA|BAB G2A|Bee edB|dBG A3::
eaa age|dBA G2A|Aee edB|def gfg|\
eaa age|dBA G2A|Bee edB|dBG A3:|
